/* XPM */
static char * east_xpm[] = {
"64 64 4 1",
"   c #4A5935",
". c #5C6B42",
"X c #6F8C5B",
"o c #8DA670",
"oooooooooooooooooooooooooooooooooooooooooooooooooooooooooooooooo",
"oooooooooooooooooooooooooooooooooooooooooooooooooooooooooooooooo",
"o..........XX..o.......XX..o.......XX..o.......XX..o.......XX.  ",
"o.XXoXXoXX.o....XXoXXoXX.o....XXoXXoXX.o....XXoXXoXX.o....XXoXXo",
"o.XXXXX..XX....XXXXX..XX....XXXXX..XX....XXXXX..XX....XXXXX..XX ",
"o.XXXXX..XX....XXXXX..XX....XXXXX..XX....XXXXX..XX....XXXXX..XX ",
"o.XXoXXoXX.o....XXoXXoXX.o....XXoXXoXX.o....XXoXXoXX.o....XXoXXo",
"o..........XX..o.......XX..o.......XX..o.......XX..o.......XX.  ",
"oooooooooooooooooooooooooooooooooooooooooooooooooooooooooooooooo",
"oooooooooooooooooooooooooooooooooooooooooooooooooooooooooooooooo",
"o..........XX..o.......XX..o.......XX..o.......XX..o.......XX.  ",
"o.XXoXXoXX.o....XXoXXoXX.o....XXoXXoXX.o....XXoXXoXX.o....XXoXXo",
"o.XXXXX..XX....XXXXX..XX....XXXXX..XX....XXXXX..XX....XXXXX..XX ",
"o.XXXXX..XX....XXXXX..XX....XXXXX..XX....XXXXX..XX....XXXXX..XX ",
"o.XXoXXoXX.o....XXoXXoXX.o....XXoXXoXX.o....XXoXXoXX.o....XXoXXo",
"o..........XX..o.......XX..o.......XX..o.......XX..o.......XX.  ",
"oooooooooooooooooooooooooooooooooooooooooooooooooooooooooooooooo",
"oooooooooooooooooooooooooooooooooooooooooooooooooooooooooooooooo",
"o..........XX..o.......XX..o.......XX..o.......XX..o.......XX.  ",
"o.XXoXXoXX.o....XXoXXoXX.o....XXoXXoXX.o....XXoXXoXX.o....XXoXXo",
"o.XXXXX..XX....XXXXX..XX....XXXXX..XX....XXXXX..XX....XXXXX..XX ",
"o.XXXXX..XX....XXXXX..XX....XXXXX..XX....XXXXX..XX....XXXXX..XX ",
"o.XXoXXoXX.o....XXoXXoXX.o....XXoXXoXX.o....XXoXXoXX.o....XXoXXo",
"o..........XX..o.......XX..o.......XX..o.......XX..o.......XX.  ",
"oooooooooooooooooooooooooooooooooooooooooooooooooooooooooooooooo",
"oooooooooooooooooooooooooooooooooooooooooooooooooooooooooooooooo",
"o..........XX..o.......XX..o.......XX..o.......XX..o.......XX.  ",
"o.XXoXXoXX.o....XXoXXoXX.o....XXoXXoXX.o....XXoXXoXX.o....XXoXXo",
"o.XXXXX..XX....XXXXX..XX....XXXXX..XX....XXXXX..XX....XXXXX..XX ",
"o.XXXXX..XX....XXXXX..XX....XXXXX..XX....XXXXX..XX....XXXXX..XX ",
"o.XXoXXoXX.o....XXoXXoXX.o....XXoXXoXX.o....XXoXXoXX.o....XXoXXo",
"o..........XX..o.......XX..o.......XX..o.......XX..o.......XX.  ",
"oooooooooooooooooooooooooooooooooooooooooooooooooooooooooooooooo",
"oooooooooooooooooooooooooooooooooooooooooooooooooooooooooooooooo",
"o..........XX..o.......XX..o.......XX..o.......XX..o.......XX.  ",
"o.XXoXXoXX.o....XXoXXoXX.o....XXoXXoXX.o....XXoXXoXX.o....XXoXXo",
"o.XXXXX..XX....XXXXX..XX....XXXXX..XX....XXXXX..XX....XXXXX..XX ",
"o.XXXXX..XX....XXXXX..XX....XXXXX..XX....XXXXX..XX....XXXXX..XX ",
"o.XXoXXoXX.o....XXoXXoXX.o....XXoXXoXX.o....XXoXXoXX.o....XXoXXo",
"o..........XX..o.......XX..o.......XX..o.......XX..o.......XX.  ",
"oooooooooooooooooooooooooooooooooooooooooooooooooooooooooooooooo",
"oooooooooooooooooooooooooooooooooooooooooooooooooooooooooooooooo",
"o..........XX..o.......XX..o.......XX..o.......XX..o.......XX.  ",
"o.XXoXXoXX.o....XXoXXoXX.o....XXoXXoXX.o....XXoXXoXX.o....XXoXXo",
"o.XXXXX..XX....XXXXX..XX....XXXXX..XX....XXXXX..XX....XXXXX..XX ",
"o.XXXXX..XX....XXXXX..XX....XXXXX..XX....XXXXX..XX....XXXXX..XX ",
"o.XXoXXoXX.o....XXoXXoXX.o....XXoXXoXX.o....XXoXXoXX.o....XXoXXo",
"o..........XX..o.......XX..o.......XX..o.......XX..o.......XX.  ",
"oooooooooooooooooooooooooooooooooooooooooooooooooooooooooooooooo",
"oooooooooooooooooooooooooooooooooooooooooooooooooooooooooooooooo",
"o..........XX..o.......XX..o.......XX..o.......XX..o.......XX.  ",
"o.XXoXXoXX.o....XXoXXoXX.o....XXoXXoXX.o....XXoXXoXX.o....XXoXXo",
"o.XXXXX..XX....XXXXX..XX....XXXXX..XX....XXXXX..XX....XXXXX..XX ",
"o.XXXXX..XX....XXXXX..XX....XXXXX..XX....XXXXX..XX....XXXXX..XX ",
"o.XXoXXoXX.o....XXoXXoXX.o....XXoXXoXX.o....XXoXXoXX.o....XXoXXo",
"o..........XX..o.......XX..o.......XX..o.......XX..o.......XX.  ",
"oooooooooooooooooooooooooooooooooooooooooooooooooooooooooooooooo",
"oooooooooooooooooooooooooooooooooooooooooooooooooooooooooooooooo",
"o..........XX..o.......XX..o.......XX..o.......XX..o.......XX.  ",
"o.XXoXXoXX.o....XXoXXoXX.o....XXoXXoXX.o....XXoXXoXX.o....XXoXXo",
"o.XXXXX..XX....XXXXX..XX....XXXXX..XX....XXXXX..XX....XXXXX..XX ",
"o.XXXXX..XX....XXXXX..XX....XXXXX..XX....XXXXX..XX....XXXXX..XX ",
"o.XXoXXoXX.o....XXoXXoXX.o....XXoXXoXX.o....XXoXXoXX.o....XXoXXo",
"o..........XX..o.......XX..o.......XX..o.......XX..o.......XX.  "
};
