/* XPM */
static char * north_xpm[] = {
"64 64 5 1",
"   c #0A2A0A",
". c #144F14",
"X c #2E8B2E",
"o c #4CAF4C",
"+ c #3E2723",
"................................................................",
"................................................................",
"....XXX.......XXX.......XXX.......XXX.......XXX.......XXX.....  ",
"...XoX.....XoX.....XoX.....XoX.....XoX.....XoX.....XoX....      ",
"..XoX.+.XoX.+.XoX.+.XoX.+.XoX.+.XoX.+.XoX.+.XoX.+.XoX..         ",
".X..+..X..+..X..+..X..+..X..+..X..+..X..+..X..+..X..+..X.       ",
".X..+..X..+..X..+..X..+..X..+..X..+..X..+..X..+..X..+..X.       ",
"..XoX.+.XoX.+.XoX.+.XoX.+.XoX.+.XoX.+.XoX.+.XoX.+.XoX..         ",
"...XoX.....XoX.....XoX.....XoX.....XoX.....XoX.....XoX....      ",
"....XXX.......XXX.......XXX.......XXX.......XXX.......XXX.      ",
"................................................................",
"................................................................",
"....XXX.......XXX.......XXX.......XXX.......XXX.......XXX.....  ",
"...XoX.....XoX.....XoX.....XoX.....XoX.....XoX.....XoX....      ",
"..XoX.+.XoX.+.XoX.+.XoX.+.XoX.+.XoX.+.XoX.+.XoX.+.XoX..         ",
".X..+..X..+..X..+..X..+..X..+..X..+..X..+..X..+..X..+..X.       ",
".X..+..X..+..X..+..X..+..X..+..X..+..X..+..X..+..X..+..X.       ",
"..XoX.+.XoX.+.XoX.+.XoX.+.XoX.+.XoX.+.XoX.+.XoX.+.XoX..         ",
"...XoX.....XoX.....XoX.....XoX.....XoX.....XoX.....XoX....      ",
"....XXX.......XXX.......XXX.......XXX.......XXX.......XXX.      ",
"................................................................",
"................................................................",
"....XXX.......XXX.......XXX.......XXX.......XXX.......XXX.....  ",
"...XoX.....XoX.....XoX.....XoX.....XoX.....XoX.....XoX....      ",
"..XoX.+.XoX.+.XoX.+.XoX.+.XoX.+.XoX.+.XoX.+.XoX.+.XoX..         ",
".X..+..X..+..X..+..X..+..X..+..X..+..X..+..X..+..X..+..X.       ",
".X..+..X..+..X..+..X..+..X..+..X..+..X..+..X..+..X..+..X.       ",
"..XoX.+.XoX.+.XoX.+.XoX.+.XoX.+.XoX.+.XoX.+.XoX.+.XoX..         ",
"...XoX.....XoX.....XoX.....XoX.....XoX.....XoX.....XoX....      ",
"....XXX.......XXX.......XXX.......XXX.......XXX.......XXX.      ",
"................................................................",
"................................................................",
"....XXX.......XXX.......XXX.......XXX.......XXX.......XXX.....  ",
"...XoX.....XoX.....XoX.....XoX.....XoX.....XoX.....XoX....      ",
"..XoX.+.XoX.+.XoX.+.XoX.+.XoX.+.XoX.+.XoX.+.XoX.+.XoX..         ",
".X..+..X..+..X..+..X..+..X..+..X..+..X..+..X..+..X..+..X.       ",
".X..+..X..+..X..+..X..+..X..+..X..+..X..+..X..+..X..+..X.       ",
"..XoX.+.XoX.+.XoX.+.XoX.+.XoX.+.XoX.+.XoX.+.XoX.+.XoX..         ",
"...XoX.....XoX.....XoX.....XoX.....XoX.....XoX.....XoX....      ",
"....XXX.......XXX.......XXX.......XXX.......XXX.......XXX.      ",
"................................................................",
"................................................................",
"....XXX.......XXX.......XXX.......XXX.......XXX.......XXX.....  ",
"...XoX.....XoX.....XoX.....XoX.....XoX.....XoX.....XoX....      ",
"..XoX.+.XoX.+.XoX.+.XoX.+.XoX.+.XoX.+.XoX.+.XoX.+.XoX..         ",
".X..+..X..+..X..+..X..+..X..+..X..+..X..+..X..+..X..+..X.       ",
".X..+..X..+..X..+..X..+..X..+..X..+..X..+..X..+..X..+..X.       ",
"..XoX.+.XoX.+.XoX.+.XoX.+.XoX.+.XoX.+.XoX.+.XoX.+.XoX..         ",
"...XoX.....XoX.....XoX.....XoX.....XoX.....XoX.....XoX....      ",
"....XXX.......XXX.......XXX.......XXX.......XXX.......XXX.      ",
"................................................................",
"................................................................",
"....XXX.......XXX.......XXX.......XXX.......XXX.......XXX.....  ",
"...XoX.....XoX.....XoX.....XoX.....XoX.....XoX.....XoX....      ",
"..XoX.+.XoX.+.XoX.+.XoX.+.XoX.+.XoX.+.XoX.+.XoX.+.XoX..         ",
".X..+..X..+..X..+..X..+..X..+..X..+..X..+..X..+..X..+..X.       ",
".X..+..X..+..X..+..X..+..X..+..X..+..X..+..X..+..X..+..X.       ",
"..XoX.+.XoX.+.XoX.+.XoX.+.XoX.+.XoX.+.XoX.+.XoX.+.XoX..         ",
"...XoX.....XoX.....XoX.....XoX.....XoX.....XoX.....XoX....      ",
"....XXX.......XXX.......XXX.......XXX.......XXX.......XXX.      ",
"................................................................",
"................................................................",
"....XXX.......XXX.......XXX.......XXX.......XXX.......XXX.....  ",
"...XoX.....XoX.....XoX.....XoX.....XoX.....XoX.....XoX....      "
};
