/* XPM */
static char * south_xpm[] = {
"64 64 4 1",
"   c #3E2723",
". c #5D4E37",
"X c #8B7355",
"o c #A0826D",
"################################################################",
"################################################################",
".....................XXXo.....................XXXo..........    ",
"...XXXo...XXXo...XXXo...XXXo...XXXo...XXXo...XXXo...XXXo....    ",
"..XXX.X.XXX.X.XXX.X.XXX.X.XXX.X.XXX.X.XXX.X.XXX.X.XXX.X......   ",
".XX.X..XX.X..XX.X..XX.X..XX.X..XX.X..XX.X..XX.X..XX.X..XX....   ",
".XX.X..XX.X..XX.X..XX.X..XX.X..XX.X..XX.X..XX.X..XX.X..XX....   ",
"..XXX.X.XXX.X.XXX.X.XXX.X.XXX.X.XXX.X.XXX.X.XXX.X.XXX.X......   ",
"...XXXo...XXXo...XXXo...XXXo...XXXo...XXXo...XXXo...XXXo.....   ",
".....................XXXo.....................XXXo..........    ",
"################################################################",
"################################################################",
".....................XXXo.....................XXXo..........    ",
"...XXXo...XXXo...XXXo...XXXo...XXXo...XXXo...XXXo...XXXo....    ",
"..XXX.X.XXX.X.XXX.X.XXX.X.XXX.X.XXX.X.XXX.X.XXX.X.XXX.X......   ",
".XX.X..XX.X..XX.X..XX.X..XX.X..XX.X..XX.X..XX.X..XX.X..XX....   ",
".XX.X..XX.X..XX.X..XX.X..XX.X..XX.X..XX.X..XX.X..XX.X..XX....   ",
"..XXX.X.XXX.X.XXX.X.XXX.X.XXX.X.XXX.X.XXX.X.XXX.X.XXX.X......   ",
"...XXXo...XXXo...XXXo...XXXo...XXXo...XXXo...XXXo...XXXo.....   ",
".....................XXXo.....................XXXo..........    ",
"################################################################",
"################################################################",
".....................XXXo.....................XXXo..........    ",
"...XXXo...XXXo...XXXo...XXXo...XXXo...XXXo...XXXo...XXXo....    ",
"..XXX.X.XXX.X.XXX.X.XXX.X.XXX.X.XXX.X.XXX.X.XXX.X.XXX.X......   ",
".XX.X..XX.X..XX.X..XX.X..XX.X..XX.X..XX.X..XX.X..XX.X..XX....   ",
".XX.X..XX.X..XX.X..XX.X..XX.X..XX.X..XX.X..XX.X..XX.X..XX....   ",
"..XXX.X.XXX.X.XXX.X.XXX.X.XXX.X.XXX.X.XXX.X.XXX.X.XXX.X......   ",
"...XXXo...XXXo...XXXo...XXXo...XXXo...XXXo...XXXo...XXXo.....   ",
".....................XXXo.....................XXXo..........    ",
"################################################################",
"################################################################",
".....................XXXo.....................XXXo..........    ",
"...XXXo...XXXo...XXXo...XXXo...XXXo...XXXo...XXXo...XXXo....    ",
"..XXX.X.XXX.X.XXX.X.XXX.X.XXX.X.XXX.X.XXX.X.XXX.X.XXX.X......   ",
".XX.X..XX.X..XX.X..XX.X..XX.X..XX.X..XX.X..XX.X..XX.X..XX....   ",
".XX.X..XX.X..XX.X..XX.X..XX.X..XX.X..XX.X..XX.X..XX.X..XX....   ",
"..XXX.X.XXX.X.XXX.X.XXX.X.XXX.X.XXX.X.XXX.X.XXX.X.XXX.X......   ",
"...XXXo...XXXo...XXXo...XXXo...XXXo...XXXo...XXXo...XXXo.....   ",
".....................XXXo.....................XXXo..........    ",
"################################################################",
"################################################################",
".....................XXXo.....................XXXo..........    ",
"...XXXo...XXXo...XXXo...XXXo...XXXo...XXXo...XXXo...XXXo....    ",
"..XXX.X.XXX.X.XXX.X.XXX.X.XXX.X.XXX.X.XXX.X.XXX.X.XXX.X......   ",
".XX.X..XX.X..XX.X..XX.X..XX.X..XX.X..XX.X..XX.X..XX.X..XX....   ",
".XX.X..XX.X..XX.X..XX.X..XX.X..XX.X..XX.X..XX.X..XX.X..XX....   ",
"..XXX.X.XXX.X.XXX.X.XXX.X.XXX.X.XXX.X.XXX.X.XXX.X.XXX.X......   ",
"...XXXo...XXXo...XXXo...XXXo...XXXo...XXXo...XXXo...XXXo.....   ",
".....................XXXo.....................XXXo..........    ",
"################################################################",
"################################################################",
".....................XXXo.....................XXXo..........    ",
"...XXXo...XXXo...XXXo...XXXo...XXXo...XXXo...XXXo...XXXo....    ",
"..XXX.X.XXX.X.XXX.X.XXX.X.XXX.X.XXX.X.XXX.X.XXX.X.XXX.X......   ",
".XX.X..XX.X..XX.X..XX.X..XX.X..XX.X..XX.X..XX.X..XX.X..XX....   ",
".XX.X..XX.X..XX.X..XX.X..XX.X..XX.X..XX.X..XX.X..XX.X..XX....   ",
"..XXX.X.XXX.X.XXX.X.XXX.X.XXX.X.XXX.X.XXX.X.XXX.X.XXX.X......   ",
"...XXXo...XXXo...XXXo...XXXo...XXXo...XXXo...XXXo...XXXo.....   ",
".....................XXXo.....................XXXo..........    ",
"################################################################",
"################################################################",
".....................XXXo.....................XXXo..........    ",
"...XXXo...XXXo...XXXo...XXXo...XXXo...XXXo...XXXo...XXXo....    "
};
