/* XPM */
static char * west_xpm[] = {
"64 64 5 1",
"   c #1B4D2E",
". c #2D5A40",
"X c #3D6B52",
"o c #2B8659",
"+ c #FFD700",
"oooooooooooooooooooooooooooooooooooooooooooooooooooooooooooooooo",
"oooooooooooooooooooooooooooooooooooooooooooooooooooooooooooooooo",
"oo....oooo....oooo....oooo....oooo....oooo....oooo....oooo...o  ",
"oo.XX..oo.XX..oo.XX..oo.XX..oo.XX..oo.XX..oo.XX..oo.XX..oo.XX.  ",
"oo.XXX.oo.XXX.oo.XXX.oo.XXX.oo.XXX.oo.XXX.oo.XXX.oo.XXX.oo.XXX  ",
"o+.XXX+o+.XXX+o+.XXX+o+.XXX+o+.XXX+o+.XXX+o+.XXX+o+.XXX+o+.XXX  ",
"o+.XXX+o+.XXX+o+.XXX+o+.XXX+o+.XXX+o+.XXX+o+.XXX+o+.XXX+o+.XXX  ",
"oo.XXX.oo.XXX.oo.XXX.oo.XXX.oo.XXX.oo.XXX.oo.XXX.oo.XXX.oo.XXX  ",
"oo.XX..oo.XX..oo.XX..oo.XX..oo.XX..oo.XX..oo.XX..oo.XX..oo.XX.  ",
"oo....oooo....oooo....oooo....oooo....oooo....oooo....oooo...o  ",
"oooooooooooooooooooooooooooooooooooooooooooooooooooooooooooooooo",
"oooooooooooooooooooooooooooooooooooooooooooooooooooooooooooooooo",
"oo....oooo....oooo....oooo....oooo....oooo....oooo....oooo...o  ",
"oo.XX..oo.XX..oo.XX..oo.XX..oo.XX..oo.XX..oo.XX..oo.XX..oo.XX.  ",
"oo.XXX.oo.XXX.oo.XXX.oo.XXX.oo.XXX.oo.XXX.oo.XXX.oo.XXX.oo.XXX  ",
"o+.XXX+o+.XXX+o+.XXX+o+.XXX+o+.XXX+o+.XXX+o+.XXX+o+.XXX+o+.XXX  ",
"o+.XXX+o+.XXX+o+.XXX+o+.XXX+o+.XXX+o+.XXX+o+.XXX+o+.XXX+o+.XXX  ",
"oo.XXX.oo.XXX.oo.XXX.oo.XXX.oo.XXX.oo.XXX.oo.XXX.oo.XXX.oo.XXX  ",
"oo.XX..oo.XX..oo.XX..oo.XX..oo.XX..oo.XX..oo.XX..oo.XX..oo.XX.  ",
"oo....oooo....oooo....oooo....oooo....oooo....oooo....oooo...o  ",
"oooooooooooooooooooooooooooooooooooooooooooooooooooooooooooooooo",
"oooooooooooooooooooooooooooooooooooooooooooooooooooooooooooooooo",
"oo....oooo....oooo....oooo....oooo....oooo....oooo....oooo...o  ",
"oo.XX..oo.XX..oo.XX..oo.XX..oo.XX..oo.XX..oo.XX..oo.XX..oo.XX.  ",
"oo.XXX.oo.XXX.oo.XXX.oo.XXX.oo.XXX.oo.XXX.oo.XXX.oo.XXX.oo.XXX  ",
"o+.XXX+o+.XXX+o+.XXX+o+.XXX+o+.XXX+o+.XXX+o+.XXX+o+.XXX+o+.XXX  ",
"o+.XXX+o+.XXX+o+.XXX+o+.XXX+o+.XXX+o+.XXX+o+.XXX+o+.XXX+o+.XXX  ",
"oo.XXX.oo.XXX.oo.XXX.oo.XXX.oo.XXX.oo.XXX.oo.XXX.oo.XXX.oo.XXX  ",
"oo.XX..oo.XX..oo.XX..oo.XX..oo.XX..oo.XX..oo.XX..oo.XX..oo.XX.  ",
"oo....oooo....oooo....oooo....oooo....oooo....oooo....oooo...o  ",
"oooooooooooooooooooooooooooooooooooooooooooooooooooooooooooooooo",
"oooooooooooooooooooooooooooooooooooooooooooooooooooooooooooooooo",
"oo....oooo....oooo....oooo....oooo....oooo....oooo....oooo...o  ",
"oo.XX..oo.XX..oo.XX..oo.XX..oo.XX..oo.XX..oo.XX..oo.XX..oo.XX.  ",
"oo.XXX.oo.XXX.oo.XXX.oo.XXX.oo.XXX.oo.XXX.oo.XXX.oo.XXX.oo.XXX  ",
"o+.XXX+o+.XXX+o+.XXX+o+.XXX+o+.XXX+o+.XXX+o+.XXX+o+.XXX+o+.XXX  ",
"o+.XXX+o+.XXX+o+.XXX+o+.XXX+o+.XXX+o+.XXX+o+.XXX+o+.XXX+o+.XXX  ",
"oo.XXX.oo.XXX.oo.XXX.oo.XXX.oo.XXX.oo.XXX.oo.XXX.oo.XXX.oo.XXX  ",
"oo.XX..oo.XX..oo.XX..oo.XX..oo.XX..oo.XX..oo.XX..oo.XX..oo.XX.  ",
"oo....oooo....oooo....oooo....oooo....oooo....oooo....oooo...o  ",
"oooooooooooooooooooooooooooooooooooooooooooooooooooooooooooooooo",
"oooooooooooooooooooooooooooooooooooooooooooooooooooooooooooooooo",
"oo....oooo....oooo....oooo....oooo....oooo....oooo....oooo...o  ",
"oo.XX..oo.XX..oo.XX..oo.XX..oo.XX..oo.XX..oo.XX..oo.XX..oo.XX.  ",
"oo.XXX.oo.XXX.oo.XXX.oo.XXX.oo.XXX.oo.XXX.oo.XXX.oo.XXX.oo.XXX  ",
"o+.XXX+o+.XXX+o+.XXX+o+.XXX+o+.XXX+o+.XXX+o+.XXX+o+.XXX+o+.XXX  ",
"o+.XXX+o+.XXX+o+.XXX+o+.XXX+o+.XXX+o+.XXX+o+.XXX+o+.XXX+o+.XXX  ",
"oo.XXX.oo.XXX.oo.XXX.oo.XXX.oo.XXX.oo.XXX.oo.XXX.oo.XXX.oo.XXX  ",
"oo.XX..oo.XX..oo.XX..oo.XX..oo.XX..oo.XX..oo.XX..oo.XX..oo.XX.  ",
"oo....oooo....oooo....oooo....oooo....oooo....oooo....oooo...o  ",
"oooooooooooooooooooooooooooooooooooooooooooooooooooooooooooooooo",
"oooooooooooooooooooooooooooooooooooooooooooooooooooooooooooooooo",
"oo....oooo....oooo....oooo....oooo....oooo....oooo....oooo...o  ",
"oo.XX..oo.XX..oo.XX..oo.XX..oo.XX..oo.XX..oo.XX..oo.XX..oo.XX.  ",
"oo.XXX.oo.XXX.oo.XXX.oo.XXX.oo.XXX.oo.XXX.oo.XXX.oo.XXX.oo.XXX  ",
"o+.XXX+o+.XXX+o+.XXX+o+.XXX+o+.XXX+o+.XXX+o+.XXX+o+.XXX+o+.XXX  ",
"o+.XXX+o+.XXX+o+.XXX+o+.XXX+o+.XXX+o+.XXX+o+.XXX+o+.XXX+o+.XXX  ",
"oo.XXX.oo.XXX.oo.XXX.oo.XXX.oo.XXX.oo.XXX.oo.XXX.oo.XXX.oo.XXX  ",
"oo.XX..oo.XX..oo.XX..oo.XX..oo.XX..oo.XX..oo.XX..oo.XX..oo.XX.  ",
"oo....oooo....oooo....oooo....oooo....oooo....oooo....oooo...o  ",
"oooooooooooooooooooooooooooooooooooooooooooooooooooooooooooooooo",
"oooooooooooooooooooooooooooooooooooooooooooooooooooooooooooooooo",
"oo....oooo....oooo....oooo....oooo....oooo....oooo....oooo...o  ",
"oo.XX..oo.XX..oo.XX..oo.XX..oo.XX..oo.XX..oo.XX..oo.XX..oo.XX.  "
};
